X: 8296
T: Corney Is Coming
R: reel
M: 4/4
K: Dmajor
|:Addc defd|=cAAG EFGE|Add^c defg|af (3gfe fdec|
Addc defd|=c3G EFGE|Ddd^c defd|(3gfe cd eddc:|
|:defg afdB|=c3e ge^ce|defg afdf|(3gfe cd eddg|
f2 df afdf|(3gfe =ce gfge|defg a3f|g2ag fddc:|

